X: 1
T: Jean's Jig
C: Tony Hurst
R: jig
Z: 2006 John Chambers <jc:trillian.mit.edu>
D: David Cunningham and His Band "The Silver Thistle Collection"
B: "The Silver Thistle Collection"
M: 6/8
L: 1/8
K: A
|: E \
| "A"cec A2F | "E7"G2F E3  | "A"cec       A2F | "E7"G2A B3 \
| "A"cec A2F | "E7"G2F EFG | "D"FGA "(E7)"BcB |  "A"A3  A2 :|
|: e \
| "A"agf       edc | "E7"B2A F2G | "A"AGA    ecA | "E7"G2F   E3  \
| "D"FEF "(E7)"F2G |  "A"A2B c3  | "A"ece "D"f2b | "E7"f2g "A"a2 :|
